X:208
T:There's a Great Day Coming
%%stretchlast false
M:4/4
L:1/8
K:Eb clef=C1
"^I"[E,EGB] [E,EGB] [E,EGe]2 [E,EGe]2 [E,EGe]/ [E,EGe]3/2 | [E,G] "^i"[EBe] "^I"[EBg] [EBg] [EBg] "^i"[EAg]/ "^I"[EGg]/ [EGf]/ [EGe]/ "^i"[EAe] | "^vi¹"[EGc] "^I"[E,EGB] [E,EGe] [E,EGe] [E,EGe] "^I¹"[G,EBe]/ [G,EBe]/ [G,EBe]/ [G,EBe]/ [F,EBe] | "^V"[E,DBf] "^I²"[B,EBg] "^V"[B,DBf]5 "^iii7"[G,DBf] | "^i"[B,EBe] "^V¹"[DEBf] "^I"[EBg] [EBg] [EBg] [EBg] [EBg] [EGBb] | [EGBb] "^IVmaj7"[A,Ecg] "^ii¹"[A,Acf] "^IV"[A,Ace] "^i¹"[A,Ae] "^vi¹"[E,EGc] "^I"[E,EGB] [E,EGB] | [E,EGB] "^I¹"[G,EB]/ [G,EB]/ [G,EBe]/ [G,EBe]/ [G,EBe] [G,EBe] [B,EAe] "^V7"[B,DAf] [B,DAf] | [B,DAf] "^I"[E,DGf] [E,EGe]5 "^i"[Ee]3 | "^I"[EGeb] [EGeb] [EGeb] [EGeb] "^IV²"[EAec'] "^I"[EGeb] | "^i"[Ee] [Ee] "^I"[EBeg] "^iii"[G,Bg]2 [G,Bg] "^vi"[G,Bca] "^I"[E,GBg] | [E,G] "^iii"[G,B] "^I¹"[G,EBe] "^II"[F,E=Ae]2 [F,EAe] "^i"[F,EAe] [B,EBe] | [B,EBe] [B,EBe] "^I²"[B,EBg] "^I"[Eeg] "^ii7²"[CEef]2 [DEef] "^vii"[DEef] | [DEef] [DEef] "^I"[EGeb]2 [EGeb] [EGeb] "^IV²"[EAec'] "^iii"[G,GBb]3 | [G,Bg] "^♯iii"[B,ABg]2 [B,ABg] [B,Aca] "^I"[E,GBg]3 | [E,EGe]3 "^i"[Ee] "^vii"[Df]2 | [Df]2 "^i"[B,e]6 |]
